X:1
T:Hold the Lamp of Life Aloft
T:Hold the Lamp of Life Aloft
T:Edmund Simon Lorenz
T:Jennie Bain Wilson, 1880
T:Public Domain Courtesy of the Cyber Hymnal™
C:Edmund Simon Lorenz
Z:Public Domain
Z:Courtesy of the Cyber Hymnal™
%%score ( 1 2 ) ( 3 4 )
L:1/8
Q:1/4=105
M:4/4
K:C
V:1 treble 
V:2 treble 
V:3 bass 
V:4 bass 
V:1
 [EG]2 | [EG]2 [EG]2 ([EG][CE]) ([FA][EG]) | [DF]2 [DF]2 ([DF][B,D]) ([EG][DF]) | %3
w: 1.~Hold|up God’s true * and *|sav- ing light, * The *|
w: 2.~On|life’s great deep * our *|bro- ther’s bark * Is *|
w: 3.~In|er- ror’s gloom * with *|none to save * From *|
w: 4.~While|we in God’s * true *|light re- joice, * For *|
 [CE]2 [EG]2 [EG]2 [Cc]2 | [DB]6 [Fd]2 | [Ec]2 [EG]2 ([EG][CE]) ([Ec][GB]) | %6
w: lamp of life di-|vine; That|bright- ly thro’ * sin’s *|
w: drift- ing with the|tide; The|bea- con gleam- * ing *|
w: nev- er end- ing|loss, Stray|pre- cious souls * for *|
w: help a right- eous|plea Comes|to us in * a *|
 [FA]2 [FA]2 ([^FA][Ac]) ([GB][FA]) | [GB]2 [EA]2 [DG]2 [D^F]2 | [DG]6 ||"^Refrain" (GB) | %10
w: drear- y night * Its *|bless- èd rays may|shine.||
w: thro’ the dark, * From *|dan- ger’s course to|guide.|O *|
w: whom Christ gave * His *|blood up- on the|cross.||
w: plaint- ive voice * From *|sad lands o’er the|sea.||
 [Gd]4- [Gd]>[Ec] [DB]>[FA] | [EG]2 [Ge]2 [Ge]2 [Ge]>[Gd] | [Gc]2 [Gc]>[GB] A2 [Fc]2 | %13
w: |||
w: hold * the lamp of|life a- loft! Let its|light and its glo- ry|
w: |||
w: |||
 [EG]6 [CE][EG] | [EG][DF][B,D][CE] [DF]2 [DF][FA] | [FA][EG][CE][DF] [EG]2 [EG][Ec] | %16
w: |||
w: shine, Till each|land and isle a- far, Where im-|mor- tal spir- its are, Shall re-|
w: |||
w: |||
 [Fd]2 [FA]>[FA] [Ec]2 [DB]2 | [Ec]6 |] %18
w: ||
w: joice in the light di-|vine.|
w: ||
w: ||
V:2
 x2 | x8 | x8 | x8 | x8 | x8 | x8 | x8 | x6 || G2 | x8 | x8 | x4 A2 x2 | x8 | x8 | x8 | x8 | x6 |] %18
V:3
 [C,C]2 | [C,C]2 [C,C]2 [C,C]2 [C,C]2 | [G,B,]2 [G,B,]2 G,2 G,2 | [C,G,]2 [C,C]2 [C,C]2 [E,G,]2 | %4
w: ||* * O hold||
 G,6 G,2 | [C,G,]2 [C,C]2 [C,C]2 [C,C]2 | [F,C]2 [F,C]2 [D,D]2 [D,D]2 | %7
w: the lamp|||
 [G,D]2 [C,C]2 [D,B,]2 (A,C) | [G,,B,]6 || (B,D) | [G,B,]>[G,B,] [G,B,]>[G,B,] [G,B,]2 [G,B,]2 | %11
w: ||of *|life a- loft! * * *|
 [C,C]2 C2 C2 C>[B,C] | [A,C]2 [A,C]>[G,C] [F,C]2 [A,C]2 | C6 [C,G,][C,G,] | %14
w: |||
 [G,,G,][G,,G,][G,,G,][G,,G,] [G,,G,]2 [G,,G,][G,,G,] | %15
w: |
 [C,C][C,C][C,G,][C,G,] [C,C]2 [C,G,][C,G,] | [F,A,]2 [F,C]>[F,C] [G,C]2 G,2 | [C,G,]6 |] %18
w: |||
V:4
 x2 | x8 | x4 G,2 G,2 | x8 | G,6 G,2 | x8 | x8 | x6 D,2 | x6 || G,2 | x8 | x2 C2 C2 C3/2 x/ | x8 | %13
 C6 x2 | x8 | x8 | x6 G,2 | x6 |] %18

